!!!COA:	Josquin des Prez
!!!CDT:	~1450-1521/08/27
!!!OPR:	Missa Quem dicunt homines
!!!ONM:	2
!!!OTL:	Gloria
!!!AGN:	Mass; Gloria
!!!SCT:	NJE 10.3
!!!SCA:	New Josquin Edition 10.3
!!!voices:	4
!!!voices-OPR:	4-5
**kern	**kern	**kern	**kern
*staff4	*staff3	*staff2	*staff1
*Ivox	*Ivox	*Ivox	*Ivox
*I"Bassus	*I"Tenor	*I"Altus	*I"Superius
*I'B	*I'T	*I'A	*I'S
*>[A,B]	*>[A,B]	*>[A,B]	*>[A,B]
*>A	*>A	*>A	*>A
*clefF4	*clefGv2	*clefGv2	*clefG2
*k[]	*k[]	*k[]	*k[]
*M2/1	*M2/1	*M2/1	*M2/1
*met(C|)	*met(C|)	*met(C|)	*met(C|)
!!section: Et in terra pax
!!!OMD: Et in terra pax
=1-	=1-	=1-	=1-
0r	0r	1.c	0r
.	.	2c\	.
=2	=2	=2	=2
0r	0r	2d\	2r
.	.	2e\	1g
.	.	[1c	.
.	.	.	2g/
=3	=3	=3	=3
0r	0r	2c\]	2a/
.	.	2d\	2b\
.	.	1e	2.g/
.	.	.	4g/
=4	=4	=4	=4
0r	1r	2f\	2a/
.	.	4e\	2b\
.	.	4d\	.
.	1c	[1e	2.cc\
.	.	.	8b/L
.	.	.	8a/J
=5	=5	=5	=5
1r	2c\	2e\]	0g
.	2c\	4d\	.
.	.	4c\	.
2r	2d\	2B\	.
2C/	2e\	2c\	.
=6	=6	=6	=6
2C/	2.c\	1G	2r
2C/	.	.	2e/
.	4B\	.	.
2D\	2A/	2r	2f/
2E\	[2G/	2e\	[2g/
=7	=7	=7	=7
2C/	2G/]	2e\	4g/]
.	.	.	4e/
1c	2F/	2f\	2.a/
.	1G	2e\	.
.	.	.	4g/
2B\	.	[2d\	[2g/
=8	=8	=8	=8
1A	2r	4d\]	2g/]
.	.	4c\	.
.	2c\	1c	2f/
1G	2d\	.	2.g/
.	2e\	2B\	.
.	.	.	8f/L
.	.	.	8g/J
=9	=9	=9	=9
2.F\	4f\	4c\	2a/
.	4e\	4B\	.
.	4d\	4A/	2.f/
4E\	4c\	4G/	.
2D\	2B\	2F/	.
.	.	.	4e/
2C/	[2c\	2G/	[2e/
=10	=10	=10	=10
1F	2c\]	1A	2e/]
.	4B\	.	2d/
.	4A/	.	.
[1E	1B	1G	1e
=11	=11	=11	=11
1E]	1e	1g	2r
.	.	.	2b\
2r	2e\	[1g	2b\
2E\	2e\	.	2b\
=12	=12	=12	=12
2C/	2e\	2g\]	2cc\
2D\	4d\	2f\	4b\
.	4c\	.	4a/
2.E\	1B	1e	1g
4F\	.	.	.
=13	=13	=13	=13
1G	2r	2r	2r
.	2B\	2d\	1g
2r	2B\	2d\	.
2E\	2B\	[2e\	[2g/
=14	=14	=14	=14
2C/	2c\	2e\]	2g/]
2D\	2A/	2d\	2f/
2.E\	1G	2B\	2e/
.	.	[2c\	2e/
4F\	.	.	.
=15	=15	=15	=15
0G	2r	2c\]	0d
.	1g	4B\	.
.	.	4A/	.
.	.	2.B\	.
.	2g\	.	.
.	.	4G/	.
=16	=16	=16	=16
2r	2f\	4A/	0r
.	.	4B\	.
1c	2e\	4c\	.
.	.	4d\	.
.	2.g\	1e	.
2c\	.	.	.
.	8f\L	.	.
.	8e\J	.	.
=17	=17	=17	=17
2B\	2d\	1r	0r
2A\	1e	.	.
2c\	.	[1g	.
4B\	4d\	.	.
4A\	4c\	.	.
=18	=18	=18	=18
1G	2B\	2g\]	1r
.	1d	2g\	.
2r	.	2f\	2r
2C/	[2G/	2e\	[2cc\
=19	=19	=19	=19
2E\	2G/]	2g\	2cc\]
2F\	2A/	4f\	2cc\
.	.	4e\	.
2G\	2B\	2d\	2b\
2A\	2c\	2c\	2a/
=20	=20	=20	=20
1F	1A	1f	2.cc\
.	.	.	8b/L
.	.	.	8a/J
[1G	2.B\	2d\	2.g/
.	.	[2g\	.
.	4c\	.	4a/
=21	=21	=21	=21
2G\]	4d\	2g\]	2b\
.	4B\	.	.
2A\	1c	4f\	1a
.	.	4e\	.
2F\	.	2f\	.
2G\	2B\	2d\	[2g/
=22	=22	=22	=22
1D	1A	[0d	2g/]
.	.	.	2f#i/
[1G	2r	.	[1g
.	[2B\	.	.
=23	=23	=23	=23
0G]	2B\]	0d]	0g_
.	2B\	.	.
.	1B	.	.
=24	=24	=24	=24
1.C	1.c	1.e	1g]
.	.	.	1r
2C/	2c\	2e\	.
=25	=25	=25	=25
1C	2G/	1e	1.g
.	1c	.	.
[1G	.	1r	.
.	4B\	.	2g/
.	4A/	.	.
=26	=26	=26	=26
2G\]	1B	1.d	1g
2G\	.	.	.
2D\	1A	.	1r
[2F\	.	2c\	.
=27	=27	=27	=27
4F\]	2r	2A/	1r
4E\	.	.	.
2.C/	2e\	1c	.
.	2e\	.	[1g
4D\	.	.	.
4E\	2e\	4B\	.
4F\	.	4A/	.
=28	=28	=28	=28
1.G	2.d\	2B\	2g/]
.	.	2.d\	2g/
.	4c\	.	.
.	2B\	.	2d/
.	.	4G/	.
4F\	4A/	[2c\	[2f/
4E\	4G/	.	.
=29	=29	=29	=29
1D	2A/	2c\]	2f/]
.	2F/	2B\	4e/
.	.	.	4d/
[1C	1G	2.c\	1e
.	.	4d\	.
=30	=30	=30	=30
1C]	2r	0e	2r
.	2c\	.	2g/
1r	2c\	.	2cc\
.	2c\	.	2cc\
=31	=31	=31	=31
0r	1G	0r	2b\
.	.	.	2.dd\
.	2.g\	.	.
.	.	.	4cc\
.	.	.	4b\
.	4f\	.	4a/
=32	=32	=32	=32
0r	4e\	0r	2g/
.	4d\	.	.
.	2c\	.	2a/
.	2d\	.	2b\
.	2e\	.	[2cc\
=33	=33	=33	=33
1F	2.f\	2r	4cc\]
.	.	.	4b\
.	.	2c\	4a/
.	8e\L	.	4g/
.	8d\J	.	.
2F\	[1c	2f\	1a
2F\	.	2f\	.
=34	=34	=34	=34
1C	2c\]	1e	1g
.	4B\	.	.
.	4A/	.	.
1r	[1G	[1g	2r
.	.	.	[2dd\
=35	=35	=35	=35
1r	1G]	2g\]	2dd\]
.	.	2d\	2dd\
2r	1r	2f\	2a/
2c\	.	2g\	[2cc\
=36	=36	=36	=36
2c\	2r	1e	2cc\]
2c\	1g	.	4b\
.	.	.	4a/
1G	.	1d	1b
.	2g\	.	.
=37	=37	=37	=37
2r	2d\	0r	1a
1d	1f	.	.
.	.	.	2r
2d\	4e\	.	[2a/
.	4d\	.	.
=38	=38	=38	=38
2A\	1.e	0r	2a/]
1c	.	.	2g/
.	.	.	2e/
4B\	4d\	.	[2g/
4A\	4c\	.	.
=39	=39	=39	=39
2B\	2d\	1.g	4g/]
.	.	.	4f/
2c\	1c	.	2e/
[1G	.	.	2d/
.	[2B\	2g\	[2dd\
=40	=40	=40	=40
2G\]	2B\]	2d\	4dd\]
.	.	.	4g/
4F\	4A/	1f	1cc
4E\	4G/	.	.
2F\	2A/	.	.
2G\	[2G/	4e\	2b\
.	.	4d\	.
=41	=41	=41	=41
2C/	2G/]	2e\	2cc\
1c	2F/	2f\	2a/
.	1G	1d	2g/
2B\	.	.	[2dd\
=42	=42	=42	=42
2c\	2r	2e\	4dd\]
.	.	.	4cc\
2A\	2c\	2f\	1cc
1G	2e\	[1g	.
.	2d\	.	2b\
=43	=43	=43	=43
1C	2.e\	0g]	1cc
.	8d\L	.	.
.	8c\J	.	.
2r	4B\	.	1r
.	4A/	.	.
2C/	2c\	.	.
=44	=44	=44	=44
2E\	2G/	0r	0r
2F\	2.d\	.	.
4G\	.	.	.
4F\	8e\L	.	.
.	8f\J	.	.
4G\	2e\	.	.
4A\	.	.	.
=45	=45	=45	=45
2B\	2d\	0r	0r
1c	4e\	.	.
.	4d\	.	.
.	4e\	.	.
.	4f\	.	.
2B\	[2g\	.	.
=46	=46	=46	=46
2c\	4g\]	0r	0r
.	4f\	.	.
2C/	1e	.	.
2E\	.	.	.
2F\	4d\	.	.
.	4c\	.	.
=47	=47	=47	=47
4G\	4B\	0r	0r
4F\	4A/	.	.
4G\	1d	.	.
4A\	.	.	.
2B\	.	.	.
[2c\	2c\	.	.
=48	=48	=48	=48
2c\]	1d	2r	1r
2B\	.	1f	.
1c	1A	.	1cc
.	.	2e\	.
=49	=49	=49	=49
0r	0r	2e\	2b\
.	.	4d\	1b
.	.	4c\	.
.	.	2d\	.
.	.	[2c\	4a/
.	.	.	4g/
=50	=50	=50	=50
0r	0r	2c\]	2a/
.	.	2B\	1g
.	.	2c\	.
.	.	2A/	2f/
=51	=51	=51	=51
2r	1r	0G	2g/
1c	.	.	2e/
.	[1g	.	1d
2B\	.	.	.
=52	=52	=52	=52
2B\	2g\]	1r	0r
4A\	4f\	.	.
4G\	4e\	.	.
2A\	2f\	2r	.
[2G\	2g\	2d\	.
=53	=53	=53	=53
2G\]	2G/	2e\	2r
2F\	2A/	2f\	2c/
2G\	2B\	2d\	2g/
2E\	2G/	[2g\	2g/
=54	=54	=54	=54
1D	2.d\	2g\]	2.a/
.	.	2f\	.
.	8c\L	.	4b\
.	8d\J	.	.
2r	2e\	2g\	2.cc\
2C/	[2c\	2e\	.
.	.	.	8b/L
.	.	.	8a/J
=55	=55	=55	=55
2G\	2c\]	1d	1g
2G\	2B\	.	.
2A\	2.c\	1r	1r
[2c\	.	.	.
.	4d\	.	.
=56	=56	=56	=56
4c\]	1e	0r	2r
4B\	.	.	.
4c\	.	.	2c/
4A\	.	.	.
2B\	1r	.	2g/
2c\	.	.	2g/
=57	=57	=57	=57
1A	1r	2r	2a/
.	.	2c\	1cc
1G	2r	2g\	.
.	2G/	2g\	2b\
=58	=58	=58	=58
1r	2d\	1a	2a/
.	2d\	.	2.dd\
2r	1e	[1g	.
.	.	.	4cc\
2C/	.	.	[2cc\
=59	=59	=59	=59
2G\	1d	1g]	2cc\]
2G\	.	.	2b\
2A\	2r	2.e\	[1cc
[2c\	[2A/	.	.
.	.	4d\	.
=60	=60	=60	=60
4c\]	2A/]	2e\	1cc]
4B\	.	.	.
4c\	2F/	2.f\	.
4A\	.	.	.
2B\	2G/	.	1r
.	.	4e\	.
2c\	[2A/	[2e\	.
=61	=61	=61	=61
1A	4A/]	2e\]	1c
.	4G/	.	.
.	1c	4d\	.
.	.	4c\	.
1G	.	1d	2g/
.	2B\	.	2g/
=62	=62	=62	=62
0r	2A/	2e\	2a/
.	2F/	4f\	2.cc\
.	.	4e\	.
.	1f	4f\	.
.	.	4g\	4b\
.	.	[2a\	4cc\
.	.	.	4a/
=63	=63	=63	=63
2r	1e	4a\]	2b\
.	.	4g\	.
2C/	.	1g	2cc\
1D	1d	.	1a
.	.	2f#i\	.
=64	=64	=64	=64
2r	0r	2g\	1g
2C/	.	2e\	.
2D\	.	4f\	1r
.	.	4e\	.
[2F\	.	4d\	.
.	.	4c\	.
=65	=65	=65	=65
2F\]	0r	2d\	1cc
2E\	.	1c	.
1D	.	.	1dd
.	.	2B\	.
=66	=66	=66	=66
1C	2r	1c	2r
.	2c\	.	2ee\
2r	2d\	2r	4ff\
.	.	.	4ee\
[2D\	[2f\	[2a\	4dd\
.	.	.	4cc\
=67	=67	=67	=67
2D\]	2f\]	2a\]	2dd\
2E\	2e\	2g\	1cc
2F\	1d	2a\	.
2G\	.	4g\	2b\
.	.	4f\	.
=68	=68	=68	=68
0C	[0c	0e	[0cc
=69	=69	=69	=69
2r	1c]	1g	0cc]
1c	.	.	.
.	1r	2g\	.
2c\	.	2e\	.
=70	=70	=70	=70
2A\	0r	2f\	0r
2B\	.	4g\	.
.	.	4f\	.
4c\	.	4e\	.
4B\	.	4d\	.
4A\	.	[2e\	.
4G\	.	.	.
=71	=71	=71	=71
1A	0r	2e\]	0r
.	.	4d\	.
.	.	4c\	.
2G\	.	2B\	.
2c\	.	2A/	.
=72	=72	=72	=72
2A\	0r	2c\	2r
2B\	.	2d\	2g/
4c\	.	4e\	2a/
4B\	.	4d\	.
4A\	.	[2g\	2b\
4G\	.	.	.
=73	=73	=73	=73
1A	2r	2g\]	4cc\
.	.	.	4b\
.	1c	2f#i\	4cc\
.	.	.	4dd\
1G	.	[1g	2ee\
.	2B\	.	[2dd\
=74	=74	=74	=74
2r	2c\	1g]	4dd\]
.	.	.	4cc\
2E\	2e\	.	1cc
2F\	1d	1r	.
2G\	.	.	2b\
=75	=75	=75	=75
4A\	2.c\	0r	1a
4G\	.	.	.
4A\	.	.	.
4B\	4d\	.	.
2c\	2.e\	.	1g
2C/	.	.	.
.	8d\L	.	.
.	8e\J	.	.
=76	=76	=76	=76
2D\	2f\	2r	2r
2E\	2e\	2G/	2g/
4F\	1c	2.A/	2f/
4E\	.	.	.
4F\	.	.	[2a/
4G\	.	4B\	.
=77	=77	=77	=77
1A	2r	4c\	4a/]
.	.	4B\	4g/
.	1c	4c\	4e/
.	.	4d\	4f/
1G	.	2e\	1g
.	2B\	[2d\	.
=78	=78	=78	=78
2F\	2A/	4d\]	1c
.	.	4c\	.
2E\	1G	1c	.
1D	.	.	1f
.	2F/	2B\	.
=79	=79	=79	=79
0Cl	0Gl	0cl	0el
!!LO:LB:i:g=z
=80||	=80||	=80||	=80||
*>B	*>B	*>B	*>B
*clefF4	*clefGv2	*clefGv2	*clefG2
*k[]	*k[]	*k[]	*k[]
*M2/1	*M2/1	*M2/1	*M2/1
*met(C|)	*met(C|)	*met(C|)	*met(C|)
!!section: Qui tollis
!!!OMD: Qui tollis
0r	0r	1r	1g
.	.	1c	[1cc
=81	=81	=81	=81
0r	0r	1.f	2cc\]
.	.	.	8cc/L
.	.	.	8b/
.	.	.	8a/
.	.	.	8g/J
.	.	.	2a/
.	.	8f\L	2a/
.	.	8e\	.
.	.	8d\	.
.	.	8c\J	.
=82	=82	=82	=82
1r	1G	2d\	2b\
.	.	2d\	2b\
1C	[1c	2e\	1g
.	.	2e\	.
=83	=83	=83	=83
1.F	2c\]	1.c	0a
.	8c/L	.	.
.	8B/	.	.
.	8A/	.	.
.	8G/J	.	.
.	2A/	.	.
8F\L	2A/	[2f\	.
8E\	.	.	.
8D\	.	.	.
8C\J	.	.	.
=84	=84	=84	=84
2D\	2B\	4f\]	1f
.	.	4e\	.
2D\	2B\	4d\	.
.	.	4c\	.
2E\	2G/	1B	[1e
2E\	[2g\	.	.
=85	=85	=85	=85
1.C	4g\]	1c	1e]
.	4f\	.	.
.	4e\	.	.
.	4d\	.	.
.	2c\	1r	1r
2D\	4B\	.	.
.	4A/	.	.
=86	=86	=86	=86
2E\	2G/	1r	0r
2F\	1c	.	.
1D	.	2r	.
.	2B\	[2f\	.
=87	=87	=87	=87
1C	1c	2f\]	2r
.	.	2e\	1cc
1r	1G	1d	.
.	.	.	2b\
=88	=88	=88	=88
1r	0r	2c\	1a
.	.	2d\	.
1C	.	1e	2g/
.	.	.	4cc\
.	.	.	4b\
=89	=89	=89	=89
1.F	1.c	1.f	4a/
.	.	.	4g/
.	.	.	2.a/
.	.	.	4g/
8F\L	2c\	2e\	[2g/
8E\	.	.	.
8D\	.	.	.
8C\J	.	.	.
=90	=90	=90	=90
2D\	1A	1d	2g/]
2D\	.	.	2f#i/
2E\	2.G/	1r	2g/
2E\	.	.	2g/
.	8F/L	.	.
.	8G/J	.	.
=91	=91	=91	=91
0C	2A/	0r	1.cc
.	2G/	.	.
.	1c	.	.
.	.	.	8cc/L
.	.	.	8b/
.	.	.	8a/
.	.	.	8g/J
=92	=92	=92	=92
0r	1r	1d	2a/
.	.	.	2a/
.	1G	[1g	2b\
.	.	.	2b\
=93	=93	=93	=93
0r	1.c	2g\]	0g
.	.	8g\L	.
.	.	8f\	.
.	.	8e\	.
.	.	8d\J	.
.	.	2e\	.
.	8c/L	2e\	.
.	8B/	.	.
.	8A/	.	.
.	8G/J	.	.
=94	=94	=94	=94
1D	2A/	2f\	1.dd
.	2A/	2f\	.
[1G	2B\	1d	.
.	2B\	.	8dd\L
.	.	.	8cc\
.	.	.	8b\
.	.	.	8a\J
=95	=95	=95	=95
2G\]	1G	0g	0b
8G\L	.	.	.
8F\	.	.	.
8E\	.	.	.
8D\J	.	.	.
2E\	1e	.	.
2E\	.	.	.
=96	=96	=96	=96
2F\	2d\	0f	0a
2F\	2c\	.	.
1D	2.d\	.	.
.	4c\	.	.
=97	=97	=97	=97
2.G\	2.B\	1d	1r
4F\	4A/	.	.
2.E\	[1G	2.g\	2r
.	.	.	[2g/
4D\	.	4f\	.
=98	=98	=98	=98
1C	1G]	2.e\	2g/]
.	.	.	2g/
.	.	4d\	.
2.F\	2r	1c	4f/
.	.	.	4e/
.	[2c\	.	[2a/
4E\	.	.	.
=99	=99	=99	=99
2C/	4c\]	1r	4a/]
.	4B\	.	4g/
1D	1A	.	4f/
.	.	.	4e/
.	.	2r	2f/
2E\	2G/	[2c\	[2e/
=100	=100	=100	=100
1F	1A	4c\]	2e/]
.	.	4B\	.
.	.	1A	2d/
1E	2r	.	1e
.	2B\	2G#i/	.
=101	=101	=101	=101
0r	2c\	1A	2r
.	2c\	.	2e/
.	2c\	1r	2g/
.	2c\	.	2g/
=102	=102	=102	=102
0r	2G/	0r	2g/
.	4c\	.	2g/
.	4B\	.	.
.	4c\	.	2e/
.	4d\	.	.
.	2e\	.	2g/
=103	=103	=103	=103
1r	2d\	2r	4f/
.	.	.	4e/
.	1c	2g\	4d/
.	.	.	4c/
2r	.	2g\	1d
2G\	2B\	2g\	.
=104	=104	=104	=104
2c\	2c\	2g\	1c
2c\	2.e\	2g\	.
2c\	.	2e\	2.cc\
.	4d\	.	.
2c\	[2c\	2g\	.
.	.	.	4b\
=105	=105	=105	=105
2F\	2c\]	2f\	4a/
.	.	.	4g/
2G\	2B\	2.e\	1g
1A	1c	.	.
.	.	4d\	.
.	.	[2c\	2f#i/
=106	=106	=106	=106
0G	2.d\	2c\]	1g
.	.	4B\	.
.	4c\	4A/	.
.	2d\	1B	2r
.	2e\	.	2g/
=107	=107	=107	=107
2r	1f	1A	4a/
.	.	.	4g/
2F\	.	.	4a/
.	.	.	4b\
4A\	[1e	1a	2cc\
4G\	.	.	.
4A\	.	.	2c/
4B\	.	.	.
=108	=108	=108	=108
2c\	1e]	2.g\	4c/
.	.	.	4d/
2C/	.	.	4e/
.	.	4f\	4f/
4C/	2r	1e	2g/
4D\	.	.	.
4E\	2G/	.	2g/
4F\	.	.	.
=109	=109	=109	=109
2G\	4B\	1d	2g/
.	4A/	.	.
2G\	4B\	.	2.g/
.	4c\	.	.
2G\	2d\	1r	.
.	.	.	4f/
2G\	2G/	.	4e/
.	.	.	4d/
=110	=110	=110	=110
2C/	4G/	1r	2e/
.	4A/	.	.
1G	4B\	.	2d/
.	4c\	.	.
.	2d\	2r	1g
4F\	2d\	2G/	.
4E\	.	.	.
=111	=111	=111	=111
1D	2d\	2A/	1f
.	2d\	2B\	.
1C	1G	4c\	2.e/
.	.	4B\	.
.	.	4c\	.
.	.	4d\	4f/
=112	=112	=112	=112
0r	2r	2e\	4g/
.	.	.	4e/
.	2.B-\	2.d\	2.f/
.	4c\	4c\	4e/
.	2A/	[2c\	4e/
.	.	.	8d/L
.	.	.	8c/J
=113	=113	=113	=113
1r	0G	2c\]	1d
.	.	2B\	.
[1C	.	[1c	[1e
=114	=114	=114	=114
1C]	2r	2c\]	1e]
.	2G/	2c\	.
1F	1A	2c\	1f
.	.	2d\	.
=115	=115	=115	=115
2E\	2B\	2e\	1g
2C/	2c\	1g	.
1c	1A	.	1a
.	.	2f#i\	.
=116	=116	=116	=116
2B\	1G	2.g\	2d/
2G\	.	.	1g
.	.	4f\	.
1A	1c	2e\	.
.	.	4d\	2f#i/
.	.	4c\	.
=117	=117	=117	=117
[0G	2r	0B	0g
.	2d\	.	.
.	2d\	.	.
.	2d\	.	.
=118	=118	=118	=118
0G_	2B\	0r	2r
.	2G/	.	2dd\
.	4B\	.	2dd\
.	4A/	.	.
.	4B\	.	2dd\
.	4c\	.	.
=119	=119	=119	=119
0G]	2d\	0r	2b\
.	1e	.	2g/
.	.	.	4b\
.	.	.	4a/
.	[2d\	.	4b\
.	.	.	4cc\
=120	=120	=120	=120
0r	2d\]	1r	2dd\
.	1c	.	2.ee\
.	.	2r	.
.	.	.	4dd\
.	2B\	2g\	[2dd\
=121	=121	=121	=121
2r	1c	2g\	4dd\]
.	.	.	4cc\
2C/	.	2g\	1cc
1G	1r	2.g\	.
.	.	.	2b\
.	.	4f\	.
=122	=122	=122	=122
2A\	2r	1e	2.a/
2.c\	2A/	.	.
.	.	.	8g/L
.	.	.	8f/J
.	1A	1r	[1e
4B\	.	.	.
4c\	.	.	.
4A\	.	.	.
=123	=123	=123	=123
2B\	2G/	2r	0e_
2c\	2A/	2a\	.
2.A\	2c\	1a	.
.	2c\	.	.
4G\	.	.	.
=124	=124	=124	=124
2.E\	2.B\	1.g	1e]
4F\	4A/	.	.
2G\	2B\	.	2r
[2A\	[2c\	2e\	[2cc\
=125	=125	=125	=125
2A\]	2c\]	2f\	2cc\]
2G\	4d\	2g\	2b\
.	4e\	.	.
2.F\	1f	1c	1a
4E\	.	.	.
=126	=126	=126	=126
1C	1e	2r	2.g/
.	.	2c\	.
.	.	.	4e/
1r	1r	2d\	2f/
.	.	[2e\	[2g/
=127	=127	=127	=127
0r	0r	4e\]	4g/]
.	.	4d\	4f/
.	.	1c	2e/
.	.	.	1d
.	.	2B\	.
=128	=128	=128	=128
2r	2.g\	1c	0r
2c\	.	.	.
.	4e\	.	.
2d\	2f\	1r	.
[2e\	[2g\	.	.
=129	=129	=129	=129
4e\]	4g\]	1r	1r
4d\	4f\	.	.
1c	2e\	.	.
.	1d	2r	2r
2B\	.	2d\	2g/
=130	=130	=130	=130
2A\	2r	2e\	2a/
2G\	2d\	2.g\	2.b\
2B\	2d\	.	.
.	.	4f\	4a/
2c\	[2e\	4e\	[2g/
.	.	4d\	.
=131	=131	=131	=131
1A	4e\]	2.c\	2g/]
.	4d\	.	.
.	1c	.	2f#i/
.	.	4d\	.
1G	.	4e\	1g
.	.	4c\	.
.	2B\	[2g\	.
=132	=132	=132	=132
2.c\	1A	4g\]	2r
.	.	4f#i\	.
.	.	4f#i\	2cc\
4A\	.	4e\	.
2B\	2G/	2g\	2dd\
[2c\	2g\	2e\	[2ee\
=133	=133	=133	=133
4c\]	2e\	1c	4ee\]
4B\	.	.	4dd\
2A\	2f\	.	1cc
1G	[1g	1d	.
.	.	.	2b\
=134	=134	=134	=134
2r	2g\]	2.e\	1cc
2c\	1e	.	.
.	.	4f\	.
2c\	.	1g	2r
2c\	4d\	.	[2cc\
.	4c\	.	.
=135	=135	=135	=135
2A\	1f	1r	2cc\]
2B\	.	.	4b\
.	.	.	4a/
2c\	1e	2r	2.g/
4C/	.	2c\	.
4D\	.	.	4f/
=136	=136	=136	=136
4E\	0r	2c\	2g/
4C/	.	.	.
1F	.	2c\	2a/
.	.	2A/	2f/
2G\	.	2B\	4e/
.	.	.	4d/
=137	=137	=137	=137
2E\	2r	2.c\	1e
2.A\	2c\	.	.
.	.	4d\	.
.	2c\	2e\	1r
4G\	.	.	.
4F\	2c\	[2f\	.
4E\	.	.	.
=138	=138	=138	=138
2F\	2A/	2f\]	2r
2G\	2B\	4e\	2g/
.	.	4d\	.
1C	[1c	[1e	2g/
.	.	.	2g/
=139	=139	=139	=139
0r	2c\]	2e\]	2e/
.	4B\	4d\	2f/
.	4A/	4c\	.
.	2G/	2d\	2.g/
.	[2g\	[2e\	.
.	.	.	4a/
=140	=140	=140	=140
0r	4g\]	4e\]	2b\
.	4f\	4d\	.
.	4e\	4c\	1cc
.	4d\	4B\	.
.	2c\	2A/	.
.	2f\	[2a\	4b\
.	.	.	4a/
=141	=141	=141	=141
2r	1e	2a\]	[0b
2E\	.	1g	.
2G\	1d	.	.
2G\	.	4f\	.
.	.	4e\	.
=142	=142	=142	=142
1G	2r	4d\	1b]
.	.	4c\	.
.	2.g\	4B\	.
.	.	4A/	.
2E\	.	2G/	1r
.	4f\	.	.
2C/	[2e\	[2g\	.
=143	=143	=143	=143
2.c\	4e\]	4g\]	2r
.	4d\	4f\	.
.	1c	4e\	2g/
4B\	.	4d\	.
2A\	.	4e\	2a/
.	.	4f\	.
2G\	2B\	[2g\	2b\
=144	=144	=144	=144
1A	2e\	2g\]	2cc\
.	4d\	2f\	4b\
.	4c\	.	4a/
1G	2e\	1g	1b
.	[2d\	.	.
=145	=145	=145	=145
2F\	2d\]	2r	2r
2E\	2c\	2G/	2e/
1D	1d	2A/	2f/
.	.	2B\	2d/
=146	=146	=146	=146
1C	2r	1.c	1e
.	2G/	.	.
1r	2A/	.	2r
.	2B\	2d\	2g/
=147	=147	=147	=147
2r	2c\	2e\	2a/
2G\	1d	1g	2b\
2.A\	.	.	4cc\
.	.	.	4b\
.	[2c\	2f\	4cc\
4B\	.	.	4dd\
=148	=148	=148	=148
2c\	2c\]	2e\	2ee\
2G\	2B\	2.g\	2dd\
2.c\	2c\	.	2r
.	.	4f\	.
.	2e\	4e\	2g/
4B\	.	4d\	.
=149	=149	=149	=149
2A\	2f\	2c\	2a/
2G\	2.g\	2d\	2b\
[1c	.	2.e\	4cc\
.	4f\	.	4b\
.	4e\	.	4cc\
.	4d\	4f\	4dd\
=150	=150	=150	=150
2c\]	2c\	1g	2ee\
2B\	2d\	.	1dd
2A\	2e\	1a	.
2F\	2f\	.	[2cc\
=151	=151	=151	=151
1G	1d	1g	2cc\]
.	.	.	2b\
1Cl	1cl	1el	1ccl
==	==	==	==
*-	*-	*-	*-
!!!RDF**kern: l=long note in original notation
!!!RDF**kern: i=editorial accidental
!!!RDF**kern: V=start of tuplet marker
!!!RDF**kern: Z=end of tuplet marker
!!!ENC:	Rob Wegman; Jesse Rodin (May 2013)
!!!END:	2013/05/08/
!!!EED:	Jesse Rodin
!!!EEV:	2013/05/08/
!!attribution-level@Jos: 4 (questionable)
!!!ONB:	Translated from MusicXML and edited on 2013/05/08/ by Craig Sapp
!!muse2ps: T^@{OPR}^u^@{ONM}{. }@{OTL}^C^@{COA}\n@{SCT}^i2I100v85,90,85,150c100Q16
